X:5406
T:Rachel Rae
O:England
M:C
L:1/8
S:Alasdair
K:D
D2 FA d2 Bc|d2 fd e2 cA|d2 Ad BAGF|[1 E2 AE FD DA,:|[2 E2 AE FD DA||
defg a2 fd|g2 bg e2 cA|[1defg a2 fd|Agfe fd dA:|[2d2 Ad BAGF|E2 AE FD D2||


